X: 22629
T: Laihian Polkka
R: polka
M: 2/4
K: Bminor
|:Bd/f/ Bd/f/|fg/b/ fg/b/|ff/g/ f/e/d/c/|dc/d/ B/A/F/A/|
Bd/f/ Bd/f/|fg/b/ fg/b/|ff/g/ f/e/d/c/|BF B2:|
|:b>a gf/g/|aA c/A/c/e/|aa/g/ fe/f/|ad f/d/f/a/|
bb/a/ gf/g/|aA c/A/c/e/|aa/g/ ff/e/|1 d2 f/d/f/a/:|2 d2 dc/d/||

